static/characters/youkanman/front-walking-2.svg

<svg height="182" width="160" xmlns="http://www.w3.org/2000/svg" xml:space="preserve" style="fill-rule:evenodd;clip-rule:evenodd;stroke-linecap:round;stroke-linejoin:round;stroke-miterlimit:1.5"><g opacity=".95"><path d="m542.173 844.83.977-139.625 145.559-72.779 45.537 22.827 1.221 137.42-148.739 76.039-44.555-23.882Z" style="fill:#6c4444;stroke:#000;stroke-width:2.76px" transform="translate(-146.545 -182.2) scale(.36256)"/><path d="m702.177 596.153 512.733 2.672v41.795H700.395l1.782-44.467Z" style="fill-rule:nonzero" transform="matrix(.04857 -.02428 0 .04857 33.452 67.343)"/><path d="m702.177 596.153 512.733 2.672v41.795H700.395l1.782-44.467Z" style="fill-rule:nonzero" transform="matrix(.04857 -.02428 0 .04857 43.162 47.038)"/><path d="m702.177 596.153 512.733 2.672v41.795H700.395l1.782-44.467Z" style="fill-rule:nonzero" transform="matrix(.04857 -.02428 0 .04857 18.208 59.273)"/><path d="m702.177 596.153 512.733 2.672v41.795H700.395l1.782-44.467Z" style="fill:#5e3b3b;fill-rule:nonzero" transform="matrix(.04857 -.02428 0 .04857 17.495 109.556)"/><path d="m702.177 596.153 512.733 2.672v41.795H700.395l1.782-44.467Z" style="fill:#5e3b3b;fill-rule:nonzero" transform="matrix(.04857 -.02428 0 .04857 42.483 97.063)"/><path d="m702.177 596.153 512.733 2.672v41.795H700.395l1.782-44.467Z" style="fill-rule:nonzero" transform="matrix(.02872 .01418 0 .04857 30.25 33.03)"/><path d="m702.177 596.153 512.733 2.672v41.795H700.395l1.782-44.467Z" style="fill-rule:nonzero" transform="matrix(.02872 .01418 0 .04857 83.787 7.527)"/><path d="m702.177 596.153 512.733 2.672v41.795H700.395l1.782-44.467Z" style="fill:#5e3b3b;fill-rule:nonzero" transform="matrix(.02872 .01418 0 .04857 83.039 57.517)"/><path d="m702.177 596.153 512.733 2.672v41.795H700.395l1.782-44.467Z" style="fill-rule:nonzero" transform="matrix(.02872 .01418 0 .04857 29.474 84.3)"/><path d="M292.815 789.932c108.957 68.602 188.321 137.878 238.092 207.825l-50.443 42.373c-51.116-73.984-127.79-144.604-230.021-211.861l-31.176-31.021 32.085-38.249 41.463 30.933Z" style="fill-rule:nonzero" transform="matrix(.04857 -.02428 0 .04857 32.376 63.253)"/><path style="fill-rule:nonzero" d="M625.74 644.656h40.354v512.502H625.74z" transform="matrix(.04857 -.02428 0 .04857 34.81 66.707)"/><path style="fill-rule:nonzero" d="M625.74 644.656h40.354v512.502H625.74z" transform="matrix(.04857 -.02428 0 .04857 18.773 83.099)"/><path style="fill-rule:nonzero" d="M625.74 644.656h40.354v512.502H625.74z" transform="matrix(.04857 -.02428 0 .04857 18.9 57.911)"/><path style="fill:#5e3b3b;fill-rule:nonzero" d="M625.74 644.656h40.354v512.502H625.74z" transform="matrix(.04857 -.02428 0 .04857 71.785 33.55)"/><path style="fill:#5e3b3b;fill-rule:nonzero" d="M625.74 644.656h40.354v512.502H625.74z" transform="matrix(.04857 -.02428 0 .04857 71.785 57.266)"/><path d="m1216.93 597.043 516.3 2.673-1.78 40.904h-514.52v-43.577Z" style="fill-rule:nonzero" transform="matrix(.04857 -.02428 0 .04857 33.036 67.79)"/><path style="fill-rule:nonzero" d="M791.193 856.517h86.762v86.762h-86.762z" transform="matrix(.04857 -.02428 0 .04857 36.68 64.1)"/><path d="M1898.75 1103.62c-2.34 25.17-72.25 243.07-78.21 255.5-28.7 59.78-159.86 230.39-180.23 255.71-24.28 30.2-62.58 37.87 87.88-166.66 1.61-2.19 70.84-68.07 83.49-131.21l37.91-151.56 26.53-55.4 28.3-47.54c2.36-1.2-4.41 27.7-5.67 41.16Z" style="fill:#5e3b3b;fill-rule:nonzero" transform="matrix(.04857 .09825 0 .04857 21.611 -166.83)"/><path d="m1222.99 1088.56-185.63-336.965 38.33-22.195 46.41 82.727h201.77l46.41-82.727 38.34 22.195-185.63 336.965Zm-80.71-234.061 80.71 143.258 80.7-143.258h-161.41Z" style="fill-rule:nonzero" transform="matrix(.04857 -.02428 0 .04857 34.03 67.09)"/><path style="fill-rule:nonzero" d="M1566 856.517h86.762v86.762H1566z" transform="matrix(.04857 -.02428 0 .04857 32.388 66.77)"/><path style="fill-rule:nonzero" d="M1779.88 644.656h40.354v512.502h-40.354z" transform="matrix(.04857 -.02428 0 .04857 32.807 67.666)"/><path style="fill-rule:nonzero" d="M583.367 1161.19h40.354v512.502h-40.354z" transform="matrix(.04857 -.02428 0 .04857 36.868 65.153)"/><path d="M664.076 1651.5H1178.6v43.58l-514.524-3.57v-40.01Z" style="fill-rule:nonzero" transform="matrix(.04857 -.02428 0 .04857 35.498 66.59)"/><path d="M1180.61 1651.5h514.52l-3.56 36.45-505.61 8.02-5.35-44.47Z" style="fill-rule:nonzero" transform="matrix(.04857 -.02428 0 .04857 36.088 65.947)"/><path style="fill-rule:nonzero" d="M1737.51 1161.19h40.354v512.502h-40.354z" transform="matrix(.04857 -.02428 0 .04857 34.744 66.59)"/><path d="m977.928 1839.54 1.28 349.8c-.739 18.14-21.346 25.15-43.502 5.78-2.49-2.18-13.379-18.53-13.379-18.53l-.889-337.55" style="fill-rule:nonzero" transform="matrix(.04857 -.02428 0 .04857 27.101 61.746)"/><path d="m921.438 1839.04-.403-153.29c1.698-13.06 9.491-36.86 36.473-15.81 2.802 2.18 19.918 32.33 19.918 32.33l.502 137.27" style="fill:#5e3b3b;fill-rule:nonzero" transform="matrix(.04857 -.02428 0 .04857 27.101 61.746)"/><path d="m1382.65 1834.37-1.1-150.4c-2.48-17.48 13.67-35.09 39.36-14.8 3.04 2.4 15.25 25.91 15.25 25.91l.96 132.89" style="fill:#5e3b3b;fill-rule:nonzero" transform="matrix(.04857 -.02428 0 .04857 25.702 62.607)"/><path d="M1437.12 1827.97c5.33 135.12 124.53 252.45 293.75 361.96 2.95 1.91 9.72 13.03 9.99 16.16 1.83 21.24-1.57 26.25-25.89 18.57-3.59-1.13-112.73-72.85-112.73-76.23-131.6-104.82-189.45-180.88-219.59-314.06" style="fill-rule:nonzero" transform="matrix(.04857 -.02428 0 .04857 25.702 62.607)"/></g></svg>

<?xml version="1.0" encoding="UTF-8" standalone="no"?>
<!DOCTYPE svg PUBLIC "-//W3C//DTD SVG 1.1//EN" "http://www.w3.org/Graphics/SVG/1.1/DTD/svg11.dtd">
<svg height="182" width="160" viewBox="0 0 160 182" version="1.1" xmlns="http://www.w3.org/2000/svg" xmlns:xlink="http://www.w3.org/1999/xlink" xml:space="preserve" xmlns:serif="http://www.serif.com/" style="fill-rule:evenodd;clip-rule:evenodd;stroke-linecap:round;stroke-linejoin:round;stroke-miterlimit:1.5;">
    <g id="FrontWalking2" transform="matrix(0.0485652,-0.0242826,0,0.0485652,34.7442,66.805)">
        <g opacity="0.95">
            <g transform="matrix(7.46545,3.73272,0,7.46545,-3732.91,-6993.7)">
                <path d="M542.173,844.83L543.15,705.205L688.709,632.426L734.246,655.253L735.467,792.673L586.728,868.712L542.173,844.83Z" style="fill:rgb(108,68,68);stroke:black;stroke-width:2.76px;"/>
            </g>
            <g transform="matrix(1,0,0,1,-26.5986,-2.21655)">
                <path d="M702.177,596.153L1214.91,598.825L1214.91,640.62L700.395,640.62L702.177,596.153Z" style="fill-rule:nonzero;"/>
            </g>
            <g transform="matrix(1,0,0,1,173.323,-320.358)">
                <path d="M702.177,596.153L1214.91,598.825L1214.91,640.62L700.395,640.62L702.177,596.153Z" style="fill-rule:nonzero;"/>
            </g>
            <g transform="matrix(1,0,0,1,-340.487,-325.33)">
                <path d="M702.177,596.153L1214.91,598.825L1214.91,640.62L700.395,640.62L702.177,596.153Z" style="fill-rule:nonzero;"/>
            </g>
            <g transform="matrix(1,0,0,1,-355.17,702.704)">
                <path d="M702.177,596.153L1214.91,598.825L1214.91,640.62L700.395,640.62L702.177,596.153Z" style="fill:rgb(94,59,59);fill-rule:nonzero;"/>
            </g>
            <g transform="matrix(1,0,0,1,159.349,702.704)">
                <path d="M702.177,596.153L1214.91,598.825L1214.91,640.62L700.395,640.62L702.177,596.153Z" style="fill:rgb(94,59,59);fill-rule:nonzero;"/>
            </g>
            <g transform="matrix(0.591355,0.587577,2.62615e-16,1,-92.5251,-741.708)">
                <path d="M702.177,596.153L1214.91,598.825L1214.91,640.62L700.395,640.62L702.177,596.153Z" style="fill-rule:nonzero;"/>
            </g>
            <g transform="matrix(0.591355,0.587577,2.62615e-16,1,1009.83,-715.68)">
                <path d="M702.177,596.153L1214.91,598.825L1214.91,640.62L700.395,640.62L702.177,596.153Z" style="fill-rule:nonzero;"/>
            </g>
            <g transform="matrix(0.591355,0.587577,2.62615e-16,1,994.429,305.958)">
                <path d="M702.177,596.153L1214.91,598.825L1214.91,640.62L700.395,640.62L702.177,596.153Z" style="fill:rgb(94,59,59);fill-rule:nonzero;"/>
            </g>
            <g transform="matrix(0.591355,0.587577,2.62615e-16,1,-108.52,305.958)">
                <path d="M702.177,596.153L1214.91,598.825L1214.91,640.62L700.395,640.62L702.177,596.153Z" style="fill-rule:nonzero;"/>
            </g>
            <g transform="matrix(1,0,0,1,-48.7642,-97.5284)">
                <path d="M292.815,789.932C401.772,858.534 481.136,927.81 530.907,997.757L480.464,1040.13C429.348,966.146 352.674,895.526 250.443,828.269L219.267,797.248L251.352,758.999L292.815,789.932Z" style="fill-rule:nonzero;"/>
            </g>
            <g transform="matrix(1,0,0,1,1.36465,-1.33165)">
                <rect x="625.74" y="644.656" width="40.354" height="512.502" style="fill-rule:nonzero;"/>
            </g>
            <g transform="matrix(1,0,0,1,-328.87,171.069)">
                <rect x="625.74" y="644.656" width="40.354" height="512.502" style="fill-rule:nonzero;"/>
            </g>
            <g transform="matrix(1,0,0,1,-326.242,-346.25)">
                <rect x="625.74" y="644.656" width="40.354" height="512.502" style="fill-rule:nonzero;"/>
            </g>
            <g transform="matrix(1,0,-2.76056e-31,1,762.695,-303.4)">
                <rect x="625.74" y="644.656" width="40.354" height="512.502" style="fill:rgb(94,59,59);fill-rule:nonzero;"/>
            </g>
            <g transform="matrix(1,0,0,1,762.695,184.93)">
                <rect x="625.74" y="644.656" width="40.354" height="512.502" style="fill:rgb(94,59,59);fill-rule:nonzero;"/>
            </g>
            <g transform="matrix(1,0,0,1,-35.1647,2.70379)">
                <path d="M1216.93,597.043L1733.23,599.716L1731.45,640.62L1216.93,640.62L1216.93,597.043Z" style="fill-rule:nonzero;"/>
            </g>
            <g transform="matrix(1,0,0,1,39.8535,-35.7886)">
                <rect x="791.193" y="856.517" width="86.762" height="86.762" style="fill-rule:nonzero;"/>
            </g>
            <g transform="matrix(1,2.52298,0,1,-270.42,-4945.94)">
                <path d="M1898.75,1103.62C1896.41,1128.79 1826.5,1346.69 1820.54,1359.12C1791.84,1418.9 1660.68,1589.51 1640.31,1614.83C1616.03,1645.03 1577.73,1652.7 1728.19,1448.17C1729.8,1445.98 1799.03,1380.1 1811.68,1316.96L1849.59,1165.4L1876.12,1110L1904.42,1062.46C1906.78,1061.26 1900.01,1090.16 1898.75,1103.62Z" style="fill:rgb(94,59,59);fill-rule:nonzero;"/>
            </g>
            <g transform="matrix(1,-1.11022e-16,0,1,-14.6932,-1.48735)">
                <path d="M1222.99,1088.56L1037.36,751.595L1075.69,729.4L1122.1,812.127L1323.87,812.127L1370.28,729.4L1408.62,751.595L1222.99,1088.56ZM1142.28,854.499L1222.99,997.757L1303.69,854.499L1142.28,854.499Z" style="fill-rule:nonzero;"/>
            </g>
            <g transform="matrix(1,0,0,1,-48.511,-24.9943)">
                <rect x="1566" y="856.517" width="86.762" height="86.762" style="fill-rule:nonzero;"/>
            </g>
            <g transform="matrix(1,0,0,1,-39.898,-2.21655)">
                <rect x="1779.88" y="644.656" width="40.354" height="512.502" style="fill-rule:nonzero;"/>
            </g>
            <g transform="matrix(1,0,0,1,43.7368,-12.1499)">
                <rect x="583.367" y="1161.19" width="40.354" height="512.502" style="fill-rule:nonzero;"/>
            </g>
            <g transform="matrix(1,0,0,1,15.5159,3.32483)">
                <path d="M664.076,1651.5L1178.6,1651.5L1178.6,1695.08L664.076,1691.51L664.076,1651.5Z" style="fill-rule:nonzero;"/>
            </g>
            <g transform="matrix(1,0,0,1,27.679,-3.82841)">
                <path d="M1180.61,1651.5L1695.13,1651.5L1691.57,1687.95L1185.96,1695.97L1180.61,1651.5Z" style="fill-rule:nonzero;"/>
            </g>
            <g transform="matrix(1,0,0,1,9.09495e-13,-4.43311)">
                <rect x="1737.51" y="1161.19" width="40.354" height="512.502" style="fill-rule:nonzero;"/>
            </g>
            <g transform="matrix(1,0,0,1,-157.375,-182.866)">
                <path d="M977.928,1839.54L979.208,2189.34C978.469,2207.48 957.862,2214.49 935.706,2195.12C933.216,2192.94 922.327,2176.59 922.327,2176.59L921.438,1839.04" style="fill-rule:nonzero;"/>
            </g>
            <g transform="matrix(1,0,0,1,-157.375,-182.866)">
                <path d="M921.438,1839.04L921.035,1685.75C922.733,1672.69 930.526,1648.89 957.508,1669.94C960.31,1672.12 977.426,1702.27 977.426,1702.27L977.928,1839.54" style="fill:rgb(94,59,59);fill-rule:nonzero;"/>
            </g>
            <g transform="matrix(1,0,0,1,-186.191,-179.541)">
                <path d="M1382.65,1834.37L1381.55,1683.97C1379.07,1666.49 1395.22,1648.88 1420.91,1669.17C1423.95,1671.57 1436.16,1695.08 1436.16,1695.08L1437.12,1827.97" style="fill:rgb(94,59,59);fill-rule:nonzero;"/>
            </g>
            <g transform="matrix(1,0,0,1,-186.191,-179.541)">
                <path d="M1437.12,1827.97C1442.45,1963.09 1561.65,2080.42 1730.87,2189.93C1733.82,2191.84 1740.59,2202.96 1740.86,2206.09C1742.69,2227.33 1739.29,2232.34 1714.97,2224.66C1711.38,2223.53 1602.24,2151.81 1602.24,2148.43C1470.64,2043.61 1412.79,1967.55 1382.65,1834.37" style="fill-rule:nonzero;"/>
            </g>
        </g>
    </g>
</svg>
